svg/education/mortarboard_line.svg

<?xml version="1.0" encoding="UTF-8"?>
<svg width="24px" height="24px" viewBox="0 0 24 24" version="1.1" xmlns="http://www.w3.org/2000/svg" xmlns:xlink="http://www.w3.org/1999/xlink">
    <title>mortarboard_line</title>
    <g id="页面-1" stroke="none" stroke-width="1" fill="none" fill-rule="evenodd">
        <g id="Education" transform="translate(-384.000000, 0.000000)">
            <g id="mortarboard_line" transform="translate(384.000000, 0.000000)">
                 <path d="M24,0 L24,24 L0,24 L0,0 L24,0 Z M12.5934901,23.257841 L12.5819402,23.2595131 L12.5108777,23.2950439 L12.4918791,23.2987469 L12.4918791,23.2987469 L12.4767152,23.2950439 L12.4056548,23.2595131 C12.3958229,23.2563662 12.3870493,23.2590235 12.3821421,23.2649074 L12.3780323,23.275831 L12.360941,23.7031097 L12.3658947,23.7234994 L12.3769048,23.7357139 L12.4804777,23.8096931 L12.4953491,23.8136134 L12.4953491,23.8136134 L12.5071152,23.8096931 L12.6106902,23.7357139 L12.6232938,23.7196733 L12.6232938,23.7196733 L12.6266527,23.7031097 L12.609561,23.275831 C12.6075724,23.2657013 12.6010112,23.2592993 12.5934901,23.257841 L12.5934901,23.257841 Z M12.8583906,23.1452862 L12.8445485,23.1473072 L12.6598443,23.2396597 L12.6498822,23.2499052 L12.6498822,23.2499052 L12.6471943,23.2611114 L12.6650943,23.6906389 L12.6699349,23.7034178 L12.6699349,23.7034178 L12.678386,23.7104931 L12.8793402,23.8032389 C12.8914285,23.8068999 12.9022333,23.8029875 12.9078286,23.7952264 L12.9118235,23.7811639 L12.8776777,23.1665331 C12.8752882,23.1545897 12.8674102,23.1470016 12.8583906,23.1452862 L12.8583906,23.1452862 Z M12.1430473,23.1473072 C12.1332178,23.1423925 12.1221763,23.1452606 12.1156365,23.1525954 L12.1099173,23.1665331 L12.0757714,23.7811639 C12.0751323,23.7926639 12.0828099,23.8018602 12.0926481,23.8045676 L12.108256,23.8032389 L12.3092106,23.7104931 L12.3186497,23.7024347 L12.3186497,23.7024347 L12.3225043,23.6906389 L12.340401,23.2611114 L12.337245,23.2485176 L12.337245,23.2485176 L12.3277531,23.2396597 L12.1430473,23.1473072 Z" id="MingCute" fill-rule="nonzero"></path>
                <path d="M2.27845,8.99449 C1.43874,8.59743 1.43877,7.4027 2.27845,7.00564 L11.3588,2.71184 C11.7647,2.51988 12.2353,2.51988 12.6413,2.71184 L21.7216,7.00564 C22.4551,7.35248 22.5479,8.30792 22,8.80873 L22,13.0001 C22,13.5524 21.5523,14.0001 21,14.0001 C20.4477,14.0001 20,13.5524 20,13.0001 L20,9.8086 L19,10.2815 L19,14.0001 C19,17.8661 15.866,21.0001 12,21.0001 C8.13399,21.0001 4.99998,17.8661 4.99998,14.0001 L4.99998,10.2814 L2.27845,8.99449 Z M17,9.00007 L17.0313,9.00007 L19.146,8.00007 L12,4.62095 L4.85403,8.00007 L6.96878,9.00007 L6.99998,9.00007 L6.99998,9.01482 L12,11.3792 L17,9.01487 L17,9.00007 Z M11.3588,13.2883 L6.99998,11.2272 L6.99998,14.0001 C6.99998,16.7615 9.23856,19.0001 12,19.0001 C14.7614,19.0001 17,16.7615 17,14.0001 L17,11.2272 L12.6413,13.2883 C12.2353,13.4803 11.7647,13.4803 11.3588,13.2883 Z" id="形状" fill="#09244B"></path>
            </g>
        </g>
    </g>
</svg>

<svg xmlns="http://www.w3.org/2000/svg" width="24" height="24"><g fill="none" fill-rule="evenodd"><path d="M24 0v24H0V0h24ZM12.593 23.258l-.011.002-.071.035-.02.004-.014-.004-.071-.035c-.01-.004-.019-.001-.024.005l-.004.01-.017.428.005.02.01.013.104.074.015.004.012-.004.104-.074.012-.016.004-.017-.017-.427c-.002-.01-.009-.017-.017-.018Zm.265-.113-.013.002-.185.093-.01.01-.003.011.018.43.005.012.008.007.201.093c.012.004.023 0 .029-.008l.004-.014-.034-.614c-.003-.012-.01-.02-.02-.022Zm-.715.002a.023.023 0 0 0-.027.006l-.006.014-.034.614c0 .012.007.02.017.024l.015-.002.201-.093.01-.008.004-.011.017-.43-.003-.012-.01-.01-.184-.092Z"/><path fill="#09244B" d="M2.278 8.994c-.84-.397-.84-1.591 0-1.988l9.08-4.294a1.5 1.5 0 0 1 1.283 0l9.08 4.294c.734.346.827 1.302.279 1.803V13a1 1 0 1 1-2 0V9.81l-1 .473V14a7 7 0 1 1-14 0v-3.719L2.278 8.994ZM17 9h.031l2.115-1L12 4.62 4.854 8l2.115 1H7v.015l5 2.364 5-2.364V9Zm-5.641 4.288L7 11.228V14a5 5 0 0 0 10 0v-2.773l-4.359 2.061a1.5 1.5 0 0 1-1.282 0Z"/></g></svg>
